calendar-search-outline.svg

<svg fill="currentColor" viewBox="0 0 24 24"><path d="M19.3 18.9c.4-.7.7-1.5.7-2.4 0-2.5-2-4.5-4.5-4.5S11 14 11 16.5s2 4.5 4.5 4.5c.9 0 1.7-.2 2.4-.7l3.1 3.1 1.4-1.4zm-3.8.1c-1.4 0-2.5-1.1-2.5-2.5s1.1-2.5 2.5-2.5 2.5 1.1 2.5 2.5-1.1 2.5-2.5 2.5M5 19V9h14v2c.8.5 1.5 1.2 2 2V5c0-1.1-.9-2-2-2h-1V1h-2v2H8V1H6v2H5c-1.1 0-2 .9-2 2v14c0 1.1.9 2 2 2h5.8c-.6-.6-1-1.2-1.3-2zM19 5v2H5V5z"/></svg>

<svg  viewBox="0 0 24 24" fill="currentColor"><path  d="M19.3 18.9C19.7 18.2 20 17.4 20 16.5C20 14 18 12 15.5 12S11 14 11 16.5 13 21 15.5 21C16.4 21 17.2 20.8 17.9 20.3L21 23.4L22.4 22L19.3 18.9M15.5 19C14.1 19 13 17.9 13 16.5S14.1 14 15.5 14 18 15.1 18 16.5 16.9 19 15.5 19M5 19V9H19V11C19.8 11.5 20.5 12.2 21 13V5C21 3.9 20.1 3 19 3H18V1H16V3H8V1H6V3H5C3.9 3 3 3.9 3 5V19C3 20.1 3.9 21 5 21H10.8C10.2 20.4 9.8 19.8 9.5 19H5M19 5V7H5V5H19Z"/></svg>
